X: 1230
T: Karlı Dağı Aştım Geldim
C: Rifat Bey (Sermüezzin, Miralay)
O: Turkey
F: http://compmusic.upf.edu/node/140
N: rast--sarki--sofyan--karli_dagi--rifat_bey
N: makam= rast
N: form= sarki
N: usul= sofyan = 4/4
M: 4/4
L: 1/16
K: C _1/4B ^f  
Q: 1/4=111
%%MIDI tuningsystem comma53
BAG2 A2B2 c6B2  | d3e d2^c2 _7/8B3A G4  | \
w:  ARANAĞME  |   | 
d2_7/8e2 d2e2 d2e2 d2^c2  | 
w:   | 
d2_7/8e2 f2g2 fed^c d4  | BAG2 A2B2 c6B2  | \
w:   |   | 
d3e d2^c2 _7/8B3A G4  | 
w:   | 
z2e2 d2^c2 _7/8B3A G2F2  | G12 z4  | \
w:   |   | 
G8 G4 G4  | d2c2 c2B2 B2A2 A2G2  | 
w:  Kar lı  da  |  ğı  *  aş *  tım  *  gel  | 
G6D2 E2F2 G4  | B8 G4 B4  | c4 d4 d2c2 c2B2  | \
w:  dim   SAZ  |  Aşk  o du  |  na  düş tüm  *  gel  | 
B6G2 B2c2 d4  | d8 c4 d4  | 
w:  dim   SAZ  |  Ben  yâ re   | 
e2=f2 e2d2 c2B2 A2B2  | c6d2 B2A2 G4  | \
w:  ka *  vuş *  tum  *  gel  |  dim    | 
A6_7/8B2 G4 d4  | d2^c2 _7/8B2A2 B2A2 G2F2  | 
w:  Ben  *  gön  |  lü *  mü  *  al *  dır  | 
G6D2 E2F2 G4  | G8 G4 G4  | d2c2 c2B2 B2A2 A2G2  | \
w:  dım   SAZ  |  Kar lı  da  |  ğı  *  aş *  tım  *  gel  | 
G6D2 E2F2 G4  | 
w:  dim   SAZ  | 
B8 G4 B4  | c4 d4 d2c2 c2B2  | B6G2 B2c2 d4  | \
w:  Aşk  o du  |  na  düş tüm  *  gel  |  dim   SAZ  | 
d8 c4 d4  | e2=f2 e2d2 c2B2 A2B2  | 
w:  Ben  yâ re   |  ka *  vuş *  tum  *  gel  | 
c6d2 B2A2 G4  | A6_7/8B2 G4 d4  | d2^c2 _7/8B2A2 B2A2 G2F2  | \
w:  dim    |  Ben  *  gön  |  lü *  mü  *  al *  dır  | 
G6d2 ^c2e2 d4  | 
w:  dım   SAZ  | 
d8 d3^c =B4  | ^c2d2 e2=f2 e2d2 d2c2  | \
w:  Gül  ben  |  zi *  mi  *  sol *  dur  | 
d6^c2 _7/8B2A2 G4  | d8 d3^c =B4  | 
w:  dum   SAZ  |  Gül  ben  | 
^c2d2 e2=f2 e2d2 d2c2  | d6c2 B2d2 c4  | \
w:  zi *  mi  *  sol *  dur  |  dum   SAZ  | 
c8 c4 c4  | c4 c4 c4 c2B2  | 
w:  Naz lı ca   |  yâr dan  ay rıl  | 
d4 {e}d2^c2 _7/8B3A G4  | A6_7/8B2 G4 d4  | \
w:  dım    |  Dağ *  la  | 
d2^c2 _7/8B2A2 B2A2 G2F2  | G6c2 B2d2 c4  | 
w:  ra  *  düş *  tüm  *  gel  |  dim   SAZ  | 
c8 c4 c4  | c4 c4 c4 c2B2  | d4 {e}d2^c2 _7/8B3A G4  | \
w:  Naz lı ca   |  yâr dan  ay rıl  |  dım    | 
A6_7/8B2 G4 d4  | d2^c2 _7/8B2A2 B2A2 G2F2  | 
w:  Dağ *  la  |  ra  *  düş *  tüm  *  gel  | 
G6D2 E2F2 G4  | |


